icon/pk/mirror.svg

<svg viewBox="0 0 48 48" fill="none" xmlns="http://www.w3.org/2000/svg" height="1em" width="1em">
  <path d="M34 44H14C9 44 7.0003 43 7.0003 40L7 34L17.9999 34L19 38H30L31 34L41.0003 34V40C41.0003 43 39 44 34 44Z" fill="#2F88FF" stroke="black" stroke-width="4" stroke-linecap="round" stroke-linejoin="round"/>
  <path d="M12 34C9.95549 30.882 7 27 7 21.8544C7 11.4224 14.6112 4 24 4C33.3888 4 41 11.4224 41 21.8544C41 27 38.0445 30.882 36 34" stroke="black" stroke-width="4" stroke-linecap="round" stroke-linejoin="round"/>
</svg>

<svg width="48" height="48" fill="none" xmlns="http://www.w3.org/2000/svg"><path d="M34 44H14c-5 0-7-1-7-4v-6h11l1 4h11l1-4h10v6c0 3-2 4-7 4Z" fill="#2F88FF" stroke="#000" stroke-width="4" stroke-linecap="round" stroke-linejoin="round"/><path d="M12 34c-2.045-3.118-5-7-5-12.146C7 11.422 14.611 4 24 4s17 7.422 17 17.854C41 27 38.044 30.882 36 34" stroke="#000" stroke-width="4" stroke-linecap="round" stroke-linejoin="round"/></svg>
